X:243
T:Knocknagow
R:reel
D:Live at Mona's
Z:transcribed by Dave Marshall
M:C|
K:Ador
| c~E3 cded | c~E3 G2 AB | c~E3 cded | cABG A2AB |
c~E3 cded | c~E3 GcAB | cBcd efed | cABG A2cd |
| eaag efed | cdef g2 fg | eaag efed | cABG A2 cd |
eaag efed| cdef g2 fg | afge fded | cABG A4 |
